X: 25063
T: Maids Of Castlebar, The
R: reel
M: 4/4
K: Dmajor
(3ABc|d2 D2 (3FED B,A,|D2 FA BAFA|dB{d}BA BAFD|GE{G}ED EDB,D|
FDDF EDCE|D2 FA BAFA|df{a}fe dcdB|AFEG FDD2|
D2 (3DDD (3FED B,A,|D2 FA BAFA|dB{d}BA BAFD|GE{G}ED EDB,D|
[F4A4] [E4A4]|D2 FA BAFA|df{a}fe dcdB|AFEG FDD2||
|:a2 ^ga fddd|fdad fddd|gebe geee|gebe gfeg|
fddd Addd|face dcBA|Bcde (3faf ec|1 dBAG FDD2:|2 dBAG FD (3ABc||

